X: 2
T: The Blarney Pilgrim
R: jig
M: 6/8
L: 1/8
K: Dmix
|: DD/D/D DEG | AA/A/A ABc | BAG AGE | GEA GED | DD/D/D DEG | A2 A ABc | BAG AGE | GED DD/D/D :| dd/d/d dBG | AGA BGE | dd/d/d dBG | ABA GBd |g/g/ge dBG | AA/A/A BGE | B/B/BG AGE |[1 GED DBc :|[2 GED DFG || AD/D/D BD/D/D | A2 D ABc | BAG AGE | GEA GED |AD/D/D B2 D | AD/D/D ABc | BAG AGE |[1 GED DFG :|[2 GED D3 |]


Tune 5	Setting 5

